X: 10161
Q:
M: 6/8
L: 1/8
K: G
(G//A//B/)z2 (A//B//c/)z2 | (B//c//d/)z2 (c//d//e/)z2 | Bz2 Az2 | G2B G2d !segno!| B2B A2A |
c'2c' b2b | az2 z2a | b2b c'2c' | d'2z z2e' | b2b aga | fff fff | g2z "_Fine"z2z H|]
K: Gm
d3 d2d | e2z z2c | A3 (d2c) | B2z z2z | (Bcd de) =f |
d2z z2z | (c3 cd) e | (^F3 G2)G | B3 TA3 | G2z z2"_D.C. al Fine"d !segno!|]




